X: 1
T: Cropie's Strathspey
O: Atholl
S: MS by Barbara McOwen
R: strathspey
Z: 2017 John Chambers <jc:trillian.mit.edu>
M: C
L: 1/16
K: G
"A"[|] D2 |\
"G"DG3 G3E "D7"F3G A3F | "G"G3B dB3 "C"e6 f2 |\
"G"g3b e3g "Em"dg3 BG3 | "A7"EA3 A3F "D7"G3F E3 ||
D |\
"G"DG3 G3E "D7"F3G A3F | "G"GB3 dB3 "C"e6 f2 |\
"G"g3b e3g "Em"dg3 BG3 | "C"E3A "D7"GFED "G"G6 |]
"B"[|] d2 |\
"Em"e3f ge3 "Am"a3g e3f | "A7"efg2 f3e "D"d6 B2 |\
"C"c3d ec3 "G"B3c dB3 | "Am"EA3 A3F "D7"G3F E3 ||
D |\
"G"DG3 G3E "D7"F3G A3F | "G7"G3B dB3 "C"e6 f2 |\
"G"g3b e3g "Em"dg3 BG3 | "C"E3A "D7"GFED "G"G6 |]
